!!!COM: Premrl, Stanko
!!!CDT: 1880-1965
!!!OTL: National Anthem, Slovenia
!!!ENC: Davis, Matthew J.
!!Vocal Line Only
**kern
*clefG2
*k[b-e-]
*B-:
*M4/4
=1-
4f
=2
8.b-
16b-
8a
8a
4g
8a
8a
=3
8.f
16f
8g
8g
4d
4e-
=4
2.f
4f
=5
4.b-
8b-
4cc
4dd
=6
4dd
4cc
4b-
4a
=7
8a
8g
8f#
8g
4cc
8b-
8g
=8
2.f
4r
=9
4f
4g
2e-
=10
4d
4f
4.b-
8b-
=11
4.a
8a
4g
4g
=12
4f
4en
4f
4r
=13
4f
4g
2e-
=14
4d
4f
4.b-
8b-
=15
4b-
4b-
4b-
4b-
=16
2b-
4a
4g
=17
8f
8ee-
8dd
8cc
4ff
4a
=18
2.b-
==|!
*-
